X:1
T:194 - A Mensagem Celeste
T:Letra: Priscilla Jane Owens (1829-1899)
T:Trad.: SalomÃ£o Luiz Ginsburg (1867-1927)
T:MÃºsica: William James Kirkpatrick (1838-1921)
L:1/16
Q:1/4=108
M:3/4
K:Fmaj
V:1
C3C| "F"F7C F3G| A8c3c| c6c2 A3F| "C"G8 "C7"C3C| "F"F7C F3G| A8c3c| "C"c6c2 "C7"G3A| "F"F6z2 F3F| "Bb"B7B B3B|B8F3G| "F"A7A c3A| "C"G6z2 c3c| "F"c7A B3c| "Bb"d8 "F"c3c| "C"c6c2 "C7"G3A| "F"F8|]
w:1.~A men-sa-gem vem de Deus, Que Je-sus Ã© Sal-va-dor! Oh, cla-mai, vÃ³s, fi-lhos seus; Ã‰ Je-sus o Sal-va-dor! Pro-cla-mai, com gran-dear-dor, Que Deus a-maao pe-ca-dor, Que seu Fi-lhoao mun-do deu Pa-ra ser o Sal-va-dor!
w:2.~Ã“ vÃ³s, po-vos, eis o dom: Ã‰ Je-sus o Sal-va-dor! Por seu san-gue dÃ¡ per-dÃ£o! Ã‰ Je-sus o Sal-va-dor! I-lhas to-das, e-xul-tai, Seu a-mor con-si-de-rai; E vÃ³s, an-jos, pro-cla-mai Que Je-sus Ã© Sal-va-dor!
w:3.~Ã“ vÃ³s, san-tos, jÃ¡ bra-dai: Ã‰ Je-sus o Sal-va-dor! VÃ³s, na-Ã§Ãµes, oh, ju-bi-lai! Ã‰ Je-sus o Sal-va-dor! Sal-va-Ã§Ã£o de gra-Ã§a dÃ¡. Ho-jea to-do pe-ca-dor. GlÃ³-ria! GlÃ³-riaa Deus Jeo-vÃ¡, Pois Je-sus Ã© Sal-va-dor!
W:
W:
W:1. A mensagem vem de Deus,
W:Que Jesus Ã© Salvador!
W:Oh, clamai, vÃ³s, filhos seus;
W:Ã‰ Jesus o Salvador!
W:Proclamai, com grande ardor,
W:Que Deus ama ao pecador,
W:Que seu Filho ao mundo deu
W:Para ser o Salvador!
W:
W:2. Ã“ vÃ³s, povos, eis o dom:
W:Ã‰ Jesus o Salvador!
W:Por seu sangue dÃ¡ perdÃ£o!
W:Ã‰ Jesus o Salvador!
W:Ilhas todas, exultai,
W:Seu amor considerai;
W:E vÃ³s, anjos, proclamai
W:Que Jesus Ã© Salvador!
W:
W:
W:
W:3. Ã“ vÃ³s, santos, jÃ¡ bradai:
W:Ã‰ Jesus o Salvador!
W:VÃ³s, naÃ§Ãµes, oh, jubilai!
W:Ã‰ Jesus o Salvador!
W:SalvaÃ§Ã£o de graÃ§a dÃ¡.
W:Hoje a todo pecador.
W:GlÃ³ria! GlÃ³ria a Deus JeovÃ¡,
W:Pois Jesus Ã© Salvador!
W:
W:

